X: 22437
T: Lads Of Alnwick, The
R: three-two
M: 3/2
K: Gmajor
|:g4 d2ef gfed|B2G2g2G2 BcdB|g4 d2ef gfed|c2A2e2A2c2e2:|
|:GABc d2B2d2B2|GABc d2B2d2g2|GABc d2B2d2B2|ABcd e2A2c2e2:|
|:d2g2 BcdB g2B2|d2g2 BcdB c2e2|d2g2 BcdB g2B2|ABcd e2A2c2e2:|
|:GABc dedc BcdB|dedB BcdB d2g2|GABc dedc BcdB:|

